public/img/clock.svg

<svg width="18" height="18" viewBox="0 0 18 18" fill="none" xmlns="http://www.w3.org/2000/svg">
<path d="M9 0C4.0374 0 0 4.0374 0 9C0 13.9626 4.0374 18 9 18C13.9626 18 18 13.9626 18 9C18 4.0374 13.9626 0 9 0ZM9 16.2C5.0301 16.2 1.8 12.9699 1.8 9C1.8 5.0301 5.0301 1.8 9 1.8C12.9699 1.8 16.2 5.0301 16.2 9C16.2 12.9699 12.9699 16.2 9 16.2Z" fill="#08A6BB"/>
<path d="M9.9 4.49998H8.1V9.89999H13.5V8.09999H9.9V4.49998Z" fill="#08A6BB"/>
</svg>

<svg width="18" height="18" fill="none" xmlns="http://www.w3.org/2000/svg"><path d="M9 0C4.037 0 0 4.037 0 9s4.037 9 9 9 9-4.037 9-9-4.037-9-9-9zm0 16.2c-3.97 0-7.2-3.23-7.2-7.2S5.03 1.8 9 1.8s7.2 3.23 7.2 7.2-3.23 7.2-7.2 7.2z" fill="#08A6BB"/><path d="M9.9 4.5H8.1v5.4h5.4V8.1H9.9V4.5z" fill="#08A6BB"/></svg>
